X:1
T: Miss Jessie Cumming
C:Robert MacKintosh
R:Strathspey
Q: 128
K:D
M:4/4
L:1/16
|:B2|A3F Dd3 AF3 DB3|A3F GFED Ee3 ((3e2f2g2) |a3f g3e fd3 e3c|d3B AF3 Ad3 d2B2|
A3F Dd3 AF3 DB3|A3F GFED Ee3 ((3e2f2g2) |a3f g3e fd3 e3c|d3B AF3 Ad3 d2g2|
fa3 d3a c3a Aa3|fa3 d3f ge3 e3f|fa3 d3a c3a A3a|f3d fedc dD3 D3g|
fa3 d3a c3a Aa3|fa3 a3f ge3 e2fg|fd3 ec3 d3B AF3|G3B AF3 Dd3 d2:|
